X:172
T:Bonny Lass.  Le4.172, The
Q:1/2-=75
L:1/8
B:L.Leadley MS#4 c1850
Z:vmp.Mike Hicken 2015 www.village-music-project.org.uk
N: * There could be a sharp sign before this note but it is not clear in the original.
M:C
K:G
d2|B>AB>c d2e2|A4e4|d>BG>A B>dA>B|G4- G2d2|B>AB>c d2e2|A4d4|B"*"cde f2e2|
d4- d2d2|d3B g2 fe|d2 cB d2 BA|G2AB d2 cA|G4 F2GA|B2B2A2A2|G4- G2 AB|c2c2B2 B2|
A4A2 AG|FGAB cAdc|B4 c2 de|e<d G>A B<dA<B|G4- G2 AB|dc A2A2 Bc|ed B2 B4|!fermata!g2 fe d2 GA |B<dA<B G2z2 |]

